src/assets/icons/split-browser.svg

<?xml version="1.0" encoding="utf-8"?>
<!-- Generated by IcoMoon.io -->
<!DOCTYPE svg PUBLIC "-//W3C//DTD SVG 1.1//EN" "http://www.w3.org/Graphics/SVG/1.1/DTD/svg11.dtd">
<svg xmlns="http://www.w3.org/2000/svg" xmlns:xlink="http://www.w3.org/1999/xlink" version="1.1" width="512px" height="512px" viewBox="0 0 16 16">
<path fill="#FFFFFF" d="M0 2v13h15v-13h-15zM13 3h1v1h-1v-1zM7 14h-6v-9h6v9zM14 14h-6v-9h6v9z"/>
</svg>

<svg xmlns="http://www.w3.org/2000/svg" width="512" height="512" viewBox="0 0 16 16">
  <path fill="#FFF" d="M0 2v13h15V2H0zm13 1h1v1h-1V3zM7 14H1V5h6v9zm7 0H8V5h6v9z"/>
</svg>
